X:1
T:Corinthian -- Hornpipe
R:hornpipe
B:Cole's 1000 Fiddle Tunes
M:2/4
L:1/16
K:Bb
vde|fbfd Bdgf|f"0"=e_ec ABcA|BABc dBed|cBcd cd"4"e"0"=e|
fbfd Bdgf|f"0"=e"4"_ec ABcA|dfBd cfAc|B2B2B2:|
|:uF2|FAcA FecA|BABc defd|bagf "0"=efga|bgf"0"=e .f2(ga)|
bagf _edcB|Acgf f"0"=e"4"_ec|dfBd ceAc|B2B2B2:|
